X:1
T:Let Our Gladness Have No End
T:Let Our Gladness Have No End
T:15th Century Bohemian
T:Tobias Zavorka, 1602
T:Public Domain Courtesy of the Cyber Hymnal™
C:15th Century Bohemian
Z:Public Domain
Z:Courtesy of the Cyber Hymnal™
%%score ( 1 2 ) ( 3 4 )
L:1/8
Q:1/4=102
M:none
K:F
V:1 treble 
V:2 treble 
V:3 bass 
V:4 bass 
V:1
 FGAB cc [Ec]2 | Bc [Fd]2 [Fc]4 | ccBB AA [EG]2 | AB (z [A,F]4) x ||"^Refrain" AGAB | %5
w: 1.~Let our glad- ness have no end,|Hal- le- lu- jah!|For to earth did Christ de- scend.|Hal- le- *|lu- jah! * *|
w: 2.~See, the love- liest bloom- ing rose,|Hal- le- lu- jah!|From the branch of Jes- se grows.|Hal- le- *|lu- jah! On this|
w: 3.~In- to flesh is made the Word.|Hal- le- lu- jah!|He, our ref- uge and our Lord.|Hal- le- *|lu- jah! * *|
 c3 (z B) [CA]4 | AGAB c3 (z B) | [FA]4 F2 [Fd]2 | cA G2 F4 |] %9
w: ||||
w: day * God|gave us Christ, His Son, *|to save us;|Christ, His Son, to|
w: ||||
V:2
 C2 F2 E2 x2 | F2 x6 | F2 D2 F2 x2 | D3 (G2 C) x2 || C2 F2 | (E2 C2) x5 | D4 (C2 E2) x | x4 F2 x2 | %8
 E4 F4 |] %9
V:3
 A,2 [D,F,]2 G,2 [A,,G,]2 | [D,F,]2 [B,,B,]2 [F,A,]4 | [F,A,]2 G,2 [F,C]2 [C,C]2 | %3
 F,2 [C,E,]2 [F,,F,]4 || F,2 [D,F,]2 | (G,2 E,2) F,4 x | F,4- (F,2 G,2) x | %7
 [D,A,]4 [A,,C]2 [B,,B,]2 | G,A,B,C [F,A,]4 |] %9
V:4
 F,E, x C, B,, x3 | x8 | x2 G,2 x4 | F,B,, x6 || F,E, x2 | C,4 F,4 x | D,2 C,B,, A,,4 x | x8 | %8
 C,4 x4 |] %9

